icons/rmnh_fill.svg

<svg width="48" height="48" viewBox="0 0 48 48" fill="none" xmlns="http://www.w3.org/2000/svg">
<path fill-rule="evenodd" clip-rule="evenodd" d="M33.1394 13.6802C35.2603 13.6802 36.9795 11.9609 36.9795 9.84009C36.9795 7.71927 35.2603 6 33.1394 6C31.0186 6 29.2994 7.71927 29.2994 9.84009C29.2994 11.9609 31.0186 13.6802 33.1394 13.6802ZM36.781 14.6125C37.3484 14.5179 37.9199 14.7561 38.2521 15.2257L41.7245 20.1339C42.1158 20.6871 42.0878 21.4339 41.656 21.9561L38.1836 26.1559C37.6557 26.7943 36.7102 26.884 36.0718 26.3561C35.4333 25.8282 35.3436 24.8827 35.8715 24.2443L37.0446 22.8255C37.0104 22.6558 36.9534 22.4878 36.8722 22.3255C36.7963 22.1736 36.7036 22.0356 36.5975 21.9125C37.5686 21.8042 38.3236 20.9806 38.3236 19.9806C38.3236 18.907 37.4532 18.0366 36.3795 18.0366C35.3059 18.0366 34.4355 18.907 34.4355 19.9806C34.4355 20.3704 34.5502 20.7333 34.7477 21.0376L32.9534 20.4336L32.9533 19.232C32.9532 18.6797 32.5054 18.2321 31.9531 18.2322C31.4009 18.2322 30.9532 18.68 30.9533 19.2323L30.9535 21.1523C30.9536 21.5816 31.2276 21.963 31.6345 22.1L32.3617 22.3447L30.3009 23.3751C30.0336 23.5088 29.8093 23.6942 29.634 23.9132L31.4355 26.1891C31.9497 26.8387 31.8399 27.7821 31.1904 28.2963C30.5408 28.8104 29.5974 28.7006 29.0833 28.0511L25.4833 23.5031C25.1219 23.0466 25.0574 22.4221 25.3178 21.9013L27.6821 17.1727C28.0398 16.4573 28.7182 15.9563 29.5072 15.8248L36.781 14.6125Z" fill="black"/>
<path fill-rule="evenodd" clip-rule="evenodd" d="M28.0869 29.1341C28.4688 29.9509 29.2979 30.5168 30.2592 30.5168C31.5829 30.5168 32.6559 29.4438 32.656 28.1202L32.6594 28.1202C33.4986 28.1202 34.282 27.8809 34.9449 27.4668C35.3681 28.145 36.121 28.5963 36.9794 28.5963C37.5835 28.5963 38.1355 28.3727 38.557 28.0038C39.3201 31.0767 40.0693 33.3176 40.5327 34.5865C40.7574 35.2018 40.3672 35.8884 39.7168 35.9666C35.7403 36.4448 31.1382 36.456 27.1727 35.9579C26.5581 35.8807 26.1794 35.2565 26.3719 34.6677C26.7926 33.3812 27.4959 31.1869 28.0869 29.1341Z" fill="black"/>
<path fill-rule="evenodd" clip-rule="evenodd" d="M28 38.0138V40.4998C28 41.252 28.5571 41.8879 29.3028 41.9868C30.0485 42.0856 30.7521 41.6169 30.9482 40.8907L31.6222 38.394C30.4639 38.3295 29.2751 38.2032 28 38.0138ZM35.3757 38.3862L36.0518 40.8907C36.2479 41.6169 36.9515 42.0856 37.6972 41.9868C38.4429 41.8879 39 41.252 39 40.4998V38C37.7242 38.1883 36.5347 38.3175 35.3757 38.3862Z" fill="black"/>
<path fill-rule="evenodd" clip-rule="evenodd" d="M22.8526 29.1489C23.6578 28.9541 24.1527 28.1435 23.9579 27.3383C23.7632 26.5331 22.9525 26.0382 22.1473 26.233C19.2867 26.9249 17.1287 27.2361 15.0054 27.2282C12.8779 27.2202 10.7144 26.8919 7.83657 26.2292C7.02927 26.0433 6.22412 26.547 6.03822 27.3543C5.85232 28.1616 6.35606 28.9668 7.16336 29.1527C8.8686 29.5454 10.3863 29.8378 11.8305 30.0179V34.3521C11.8216 34.3939 11.8144 34.4363 11.809 34.4794L11.0756 40.3129C10.9745 41.1171 11.5306 41.8562 12.3313 41.9819C13.132 42.1076 13.8878 41.5744 14.038 40.778L15.1306 34.9836L16.2232 40.778C16.3734 41.5744 17.1291 42.1076 17.9299 41.9819C18.7306 41.8562 19.2866 41.1171 19.1855 40.3129L18.4522 34.4794C18.4467 34.4362 18.4395 34.3936 18.4305 34.3517V30.0027C19.7998 29.8237 21.2418 29.5385 22.8526 29.1489Z" fill="black"/>
<path d="M18 23C18 24.6569 16.6569 26 15 26C13.3431 26 12 24.6569 12 23C12 21.3431 13.3431 20 15 20C16.6569 20 18 21.3431 18 23Z" fill="black"/>
</svg>

<svg
  xmlns="http://www.w3.org/2000/svg"
  width="24"
  height="24"
  viewBox="0 0 24 24"
  fill="none"
  stroke="currentColor"
  stroke-width="2"
  stroke-linecap="round"
  stroke-linejoin="round"
>
  <path
    fill-rule="evenodd"
    d="M33.14 13.68a3.84 3.84 0 1 0 0-7.68 3.84 3.84 0 0 0 0 7.68m3.641.933a1.5 1.5 0 0 1 1.471.613l3.472 4.908a1.5 1.5 0 0 1-.068 1.822l-3.472 4.2a1.5 1.5 0 0 1-2.312-1.912l1.173-1.418a2 2 0 0 0-.448-.913 1.944 1.944 0 1 0-1.85-.875l-1.794-.604v-1.202a1 1 0 0 0-2 0v1.92a1 1 0 0 0 .681.948l.728.245-2.061 1.03c-.267.134-.492.32-.667.538l1.802 2.276a1.5 1.5 0 0 1-2.353 1.862l-3.6-4.548a1.5 1.5 0 0 1-.165-1.602l2.364-4.728a2.5 2.5 0 0 1 1.825-1.348z"
    clip-rule="evenodd"
  />
  <path
    fill-rule="evenodd"
    d="M28.087 29.134a2.397 2.397 0 0 0 4.569-1.014h.003a4.3 4.3 0 0 0 2.286-.653 2.395 2.395 0 0 0 3.612.537c.763 3.073 1.512 5.314 1.976 6.583.224.615-.166 1.301-.816 1.38-3.977.478-8.579.489-12.544-.01a.984.984 0 0 1-.801-1.29c.42-1.286 1.124-3.48 1.715-5.533"
    clip-rule="evenodd"
  />
  <path
    fill-rule="evenodd"
    d="M28 38.014V40.5a1.5 1.5 0 0 0 2.948.39l.674-2.496a40 40 0 0 1-3.622-.38m7.376.372.676 2.505A1.5 1.5 0 0 0 39 40.5V38a42 42 0 0 1-3.624.386"
    clip-rule="evenodd"
  />
  <path
    fill-rule="evenodd"
    d="M22.853 29.149a1.5 1.5 0 1 0-.706-2.916c-2.86.692-5.018 1.003-7.142.995-2.127-.008-4.29-.336-7.168-.999a1.5 1.5 0 1 0-.674 2.924c1.706.392 3.223.685 4.668.865v4.334a2 2 0 0 0-.022.127l-.733 5.834a1.5 1.5 0 0 0 2.962.465l1.093-5.794 1.092 5.794a1.5 1.5 0 0 0 2.963-.465l-.734-5.834a2 2 0 0 0-.022-.127v-4.35c1.37-.178 2.812-.463 4.423-.853"
    clip-rule="evenodd"
  />
  <path d="M18 23a3 3 0 1 1-6 0 3 3 0 0 1 6 0" />
</svg>
